src/main/resources/icons/AllIcons/runConfigurations/ignoredTest_dark.svg

<!-- Copyright 2000-2021 JetBrains s.r.o. Use of this source code is governed by the Apache 2.0 license that can be found in the LICENSE file. -->
<svg xmlns="http://www.w3.org/2000/svg" xmlns:xlink="http://www.w3.org/1999/xlink" width="16" height="16" viewBox="0 0 16 16">
  <defs>
    <path id="ignoredtest_dark-a" d="M14.9980289,8.16777137 C14.2630411,7.74305092 13.4099044,7.5 12.5,7.5 C9.73857625,7.5 7.5,9.73857625 7.5,12.5 C7.5,13.4099044 7.74305092,14.2630411 8.16777137,14.9980289 C8.1120065,14.9993405 8.05608026,15 8,15 C4.134,15 1,11.866 1,8 C1,4.134 4.134,1 8,1 C11.866,1 15,4.134 15,8 C15,8.05608026 14.9993405,8.1120065 14.9980289,8.16777137 Z"/>
  </defs>
  <g fill="none" fill-rule="evenodd">
    <path fill="#9AA7B0" fill-opacity=".8" d="M11.1542488,14.6072508 C11.5427424,14.8558702 12.0045395,15 12.5,15 C13.8807119,15 15,13.8807119 15,12.5 C15,12.0045395 14.8558702,11.5427424 14.6072508,11.1542488 L11.1542488,14.6072508 Z M10.3927492,13.8457512 L13.8457512,10.3927492 C13.4572576,10.1441298 12.9954605,10 12.5,10 C11.1192881,10 10,11.1192881 10,12.5 C10,12.9954605 10.1441298,13.4572576 10.3927492,13.8457512 Z M12.5,16 C10.5670034,16 9,14.4329966 9,12.5 C9,10.5670034 10.5670034,9 12.5,9 C14.4329966,9 16,10.5670034 16,12.5 C16,14.4329966 14.4329966,16 12.5,16 Z"/>
    <mask id="ignoredtest_dark-b" fill="#fff">
      <use xlink:href="#ignoredtest_dark-a"/>
    </mask>
    <g mask="url(#ignoredtest_dark-b)">
      <path fill="#F98B9E" fill-opacity=".6" d="M15,8 C15,11.866 11.866,15 8,15 C4.134,15 1,11.866 1,8 C1,4.134 4.134,1 8,1 C11.866,1 15,4.134 15,8"/>
      <path fill="#231F20" fill-opacity=".7" d="M11.9922,8.1543 C11.9912,7.4053 11.8512,6.8613 11.5752,6.5203 C11.2982,6.1793 10.8872,6.0093 10.3402,6.0093 C10.3102,6.0093 10.0073722,5.97916169 9.6602,6.0683 C9.3130278,6.15743831 9.08048453,6.31246716 8.8582,6.5503 C8.78526991,6.62833138 8.7292,6.7323 8.6702,6.8303 C8.5532,6.5793 8.4022,6.3753 8.1982,6.2453 C7.9492,6.0883 7.6382,6.0093 7.2632,6.0093 C7.2272,6.0093 6.88195415,5.96965225 6.58,6.0683 C6.27804585,6.16694775 5.9892,6.3973 5.8872,6.5093 C5.8592,6.5393 5.8412,6.5823 5.8152,6.6153 L5.8612,6.0003 L4.78,6.0003 L4.78,11.0003 L6,11.0003 L6,8.9453 C5.999,8.6023 6,8.1543 6.05,7.92 C6.1,7.6857 6.132,7.492 6.23,7.31 C6.328,7.128 6.42439026,6.9928125 6.58,6.93 C6.73560974,6.8671875 6.826,6.8473 7,6.8323 C7.285,6.8503 7.479,6.9533 7.62,7.1643 C7.775,7.3963 7.779,7.7443 7.78,8.2073 L7.78,11.0003 L9,11.0003 L9,8.7473 C9,8.4333 9.003,8.1563 9.05,7.9163 C9.096,7.6753 9.129,7.4733 9.23,7.3113 C9.331,7.1493 9.421,7.0263 9.58,6.9433 C9.703,6.8793 9.838,6.8463 10,6.8323 C10.286,6.8493 10.477,6.9533 10.62,7.1643 C10.777,7.3963 10.779,7.7443 10.78,8.2073 L10.78,11.0003 L11.9972,11.0003 L11.9922,8.1543 Z"/>
    </g>
  </g>
</svg>

<svg xmlns="http://www.w3.org/2000/svg" xmlns:xlink="http://www.w3.org/1999/xlink" width="16" height="16" viewBox="0 0 16 16"><rect id="frame" width="16" height="16" fill="none"/><defs><path id="a" d="M14.998 8.168a5 5 0 0 0-6.83 6.83 7 7 0 1 1 6.83-6.83z"/></defs><g fill="none" fill-rule="evenodd"><path fill="#9AA7B0" fill-opacity=".8" d="M11.154 14.607a2.5 2.5 0 0 0 3.453-3.453l-3.453 3.453zm-.761-.761l3.453-3.453a2.5 2.5 0 0 0-3.453 3.453zM12.5 16a3.5 3.5 0 1 1 0-7 3.5 3.5 0 0 1 0 7z"/><mask id="b" fill="#fff"><use xlink:href="#a"/></mask><g mask="url(#b)"><path fill="#F98B9E" fill-opacity=".6" d="M15 8A7 7 0 1 1 1 8a7 7 0 0 1 14 0"/><path fill="#231F20" fill-opacity=".7" d="M11.992 8.154c0-.749-.14-1.293-.417-1.634-.277-.34-.688-.51-1.235-.51-.03 0-.333-.03-.68.058-.347.09-.58.244-.802.482-.073.078-.129.182-.188.28-.117-.25-.268-.455-.472-.585-.249-.157-.56-.236-.935-.236-.036 0-.381-.04-.683.06-.302.098-.59.328-.693.44-.028.03-.046.073-.072.106L5.861 6H4.78v5H6V8.945c-.001-.343 0-.79.05-1.025.05-.234.082-.428.18-.61.098-.182.194-.317.35-.38.156-.063.246-.083.42-.098.285.018.479.121.62.332.155.232.159.58.16 1.043V11H9V8.747c0-.314.003-.59.05-.83.046-.242.079-.444.18-.606.101-.162.191-.285.35-.368.123-.064.258-.097.42-.11.286.016.477.12.62.331.157.232.159.58.16 1.043V11h1.217l-.005-2.846z"/></g></g></svg>
